X: 63
T: s'Lerchal
M: 23/44
L: 1/8
K: C
[E2C2] \
| "C"[EC][GE] [GE][EC] | [EC][GE] [GE][EC] \
| "C"[EC][GE] [G2E2] [AF][GE] | "G7"[F4D4] [D2B,2] \
| "G7"[DB,][FD] [FD][DB,] | [DB,][FD] [FD][DB,] \
| "G7"[DB,][FD] [F2D2] [GE][FD] | "C"[E2C2] z2 [g2e2] |
| "F"[a2f2] [g2e2] | "(Dm)"[f4d4] \
| "C"[g2e2] [f2d2] | "(Am)"[e4c4] \
| "G7"[d3B3]  [fd][ec][dB] | "C"[e2c2] [a2f2] [g2e2] \
"I"\
| "F"[a2f2] [g2e2] | "(Dm)"[f4d4] \
| "C"[g2e2] [f2d2] | "(Am)"[e4c4] \
| "G7"[dB][ec] [fd][ge] [af][bg] | "C"[c'2e2] z2 :|
%%sep 2 1 500
